packages/ui-icons/svg/Solid/protractor.svg

<svg viewBox="0 0 1920 1920" xmlns="http://www.w3.org/2000/svg">
    <path d="M960 480.667c-530.193 0-960 429.807-960 960.003h1920c0-530.196-429.81-960.003-960-960.003ZM1261.79 1334c-43.93-124.29-162.46-213.33-301.79-213.33-132.548 0-246.274 80.59-294.853 195.44a315.89 315.89 0 0 0-6.938 17.89h603.581ZM1232 886.001c44.18 0 80-35.818 80-80 0-44.183-35.82-80-80-80s-80 35.817-80 80c0 44.182 35.82 80 80 80Zm-464-80c0 44.182-35.818 80-80 80-44.183 0-80-35.818-80-80 0-44.183 35.817-80 80-80 44.182 0 80 35.817 80 80Zm677.33 229.333c44.19 0 80-35.818 80-80 0-44.183-35.81-80-80-80-44.18 0-80 35.817-80 80 0 44.182 35.82 80 80 80Zm208 143.996c0 44.19-35.81 80-80 80-44.18 0-80-35.81-80-80 0-44.18 35.82-80 80-80 44.19 0 80 35.82 80 80ZM474.666 1035.334c44.183 0 80-35.818 80-80 0-44.183-35.817-80-80-80-44.182 0-80 35.817-80 80 0 44.182 35.818 80 80 80Zm-47.999 143.996c0 44.19-35.818 80-80 80-44.183 0-80-35.81-80-80 0-44.18 35.817-80 80-80 44.182 0 80 35.82 80 80ZM960 827.334c44.18 0 80-35.818 80-80 0-44.183-35.82-80-80-80-44.183 0-80 35.817-80 80 0 44.182 35.817 80 80 80Z" fill-rule="evenodd"/>
</svg>

<svg viewBox="0 0 1920 1920" version="1.1" xmlns="http://www.w3.org/2000/svg">
    <path d="M960,480.667 C429.807,480.667 0,910.474 0,1440.67 L1920,1440.67 C1920,910.474 1490.19,480.667 960,480.667 Z M1261.79,1334 C1217.86,1209.71 1099.33,1120.67 960,1120.67 C827.452,1120.67 713.726,1201.26 665.147,1316.11 C662.662,1321.98 660.347,1327.95 658.209,1334 L1261.79,1334 Z M1232,886.001 C1276.18,886.001 1312,850.183 1312,806.001 C1312,761.818 1276.18,726.001 1232,726.001 C1187.82,726.001 1152,761.818 1152,806.001 C1152,850.183 1187.82,886.001 1232,886.001 Z M768,806.001 C768,850.183 732.182,886.001 688,886.001 C643.817,886.001 608,850.183 608,806.001 C608,761.818 643.817,726.001 688,726.001 C732.182,726.001 768,761.818 768,806.001 Z M1445.33,1035.334 C1489.52,1035.334 1525.33,999.516 1525.33,955.334 C1525.33,911.151 1489.52,875.334 1445.33,875.334 C1401.15,875.334 1365.33,911.151 1365.33,955.334 C1365.33,999.516 1401.15,1035.334 1445.33,1035.334 Z M1653.33,1179.33 C1653.33,1223.52 1617.52,1259.33 1573.33,1259.33 C1529.15,1259.33 1493.33,1223.52 1493.33,1179.33 C1493.33,1135.15 1529.15,1099.33 1573.33,1099.33 C1617.52,1099.33 1653.33,1135.15 1653.33,1179.33 Z M474.666,1035.334 C518.849,1035.334 554.666,999.516 554.666,955.334 C554.666,911.151 518.849,875.334 474.666,875.334 C430.484,875.334 394.666,911.151 394.666,955.334 C394.666,999.516 430.484,1035.334 474.666,1035.334 Z M426.667,1179.33 C426.667,1223.52 390.849,1259.33 346.667,1259.33 C302.484,1259.33 266.667,1223.52 266.667,1179.33 C266.667,1135.15 302.484,1099.33 346.667,1099.33 C390.849,1099.33 426.667,1135.15 426.667,1179.33 Z M960,827.334 C1004.18,827.334 1040,791.516 1040,747.334 C1040,703.151 1004.18,667.334 960,667.334 C915.817,667.334 880,703.151 880,747.334 C880,791.516 915.817,827.334 960,827.334 Z" stroke="none" stroke-width="1" fill-rule="evenodd"/>
</svg>
